X:152
T:score233
L:1/8
Q:1/4=96
M:4/4
I:linebreak $
K:C
 G,2 | C2 EG B2 AB | G4 E2 CA, | G,2 A,C C2 DG, |$ C6 G,2 | C2 EG B2 AB | G4 EecA |$ G2 EF E2 DG, | %8
 C6 z2 |] %9
